X: 1
T: Old Hag at the Churn
R: jig
M: 6/8
L: 1/8
K: Amix
|: "A"e2d eAA | e2d eag | e2d eAA | "G"Bcd Bcd :|
|: "A"eaf "Em"g3 | "A"eaa "G"ged | "A"eaf "Em"gfg | "G"edB Bcd :|
